X:1
T:Title
%%score { ( 1 3 ) | 2 }
L:1/8
M:4/4
K:Ab
V:1 treble nm="Grand Piano"
V:3 treble 
V:2 bass 
V:1
 z4 z2[Q:1/4=100] [CA]>[DB][Q:1/4=110] | [Ec]2 [Ec]2 [Ec]2 [Ee]2 | [Fe]4 [Fd]2 [Fc]>[FB] | %3
 A2 A2 G2 A2 |[M:3/4] B6 |[M:1/4] [CA]>[DB] |[M:4/4] [Ec]2 [Ec]2 [Ec]2 [Ee]2 | %7
 [Fe]4 [Fd]2 [Fc]>[FB] | A2 A2 G2 B2 |[M:3/4] [CEA]6 |[M:1/4] [CA]>[DB] | %11
[M:4/4] [Ec]2 [Ec]2 [Ec]2 [Ee]2 | [Fe]4 [Fd]2 [Fc]>[FB] | A2 A2 G2 A2 |[M:3/4] B6 | %15
[M:1/4] [CA]>[DB] |[M:4/4] [Ec]2 [Ec]2 [Ec]2 [Ee]2 | [Fe]4 [Fd]2 [Fc]>[FB] | A2 A2 G2 B2 | %19
[M:3/4] [CEA]6 |[M:1/4] A>B |[M:4/4] c2 A2 c2 A2 | c6 z2 | [Gd]2 [GB]2 [Gd]2 [GB]2 |[M:3/4] d6 | %25
[M:1/4] [CA]>[DB] |[M:4/4] [Ec]2 [Ec]2 [Ec]2 [Ee]2 | [Fe]4 [Fd]2 [Fc]>[FB] | A2 A2 G2 B2 | %29
[M:3/4] [CEA]6 |] %30
V:2
 z4 z2 [A,,A,]>[A,,A,] | [A,,A,]2 [A,,A,]2 [A,,A,]2 [C,A,]2 | [D,A,]4 [D,A,]2 [D,D]>[D,D] | %3
 [E,CE]2 [E,CE]2 [E,B,E]2 [E,CE]2 |[M:3/4] [E,DE]6 |[M:1/4] [A,,A,]>[A,,A,] | %6
[M:4/4] [A,,A,]2 [A,,A,]2 [A,,A,]2 [C,A,]2 | [D,A,]4 [D,A,]2 [D,D]>[D,D] | %8
 [E,CE]2 [E,CE]2 [E,B,E]2 [E,DE]2 |[M:3/4] A,,6 |[M:1/4] [A,,A,]>[A,,A,] | %11
[M:4/4] [A,,A,]2 [A,,A,]2 [A,,A,]2 [C,A,]2 | [D,A,]4 [D,A,]2 [D,D]>[D,D] | %13
 [E,CE]2 [E,CE]2 [E,B,E]2 [E,CE]2 |[M:3/4] [E,DE]6 |[M:1/4] [A,,A,]>[A,,A,] | %16
[M:4/4] [A,,A,]2 [A,,A,]2 [A,,A,]2 [C,A,]2 | [D,A,]4 [D,A,]2 [D,D]>[D,D] | %18
 [E,CE]2 [E,CE]2 [E,B,E]2 [E,DE]2 |[M:3/4] A,,6 |[M:1/4][K:treble] [A,CE]>[A,DE] | %21
[M:4/4] [A,E]2 [A,CE]2 [A,E]2 [A,CE]2 | [A,EA]2[K:bass] [A,E]2 [A,E]2 [E,E]>[E,E] | %23
 [E,E]2 [E,E]2 [E,E]2 [E,E]2 |[M:3/4] [E,E]2 [E,E]2 [E,E]2 |[M:1/4] [A,,A,]>[A,,A,] | %26
[M:4/4] [A,,A,]2 [A,,A,]2 [A,,A,]2 [C,A,]2 | [D,A,]4 [D,A,]2 [D,D]>[D,D] | %28
 [E,CE]2 [E,CE]2 [E,B,E]2 [E,DE]2 |[M:3/4] A,,6 |] %30
V:3
 x8 | x8 | x8 | x8 |[M:3/4] x6 |[M:1/4] x2 |[M:4/4] x8 | x8 | x8 |[M:3/4] x6 |[M:1/4] x2 | %11
[M:4/4] x8 | x8 | x8 |[M:3/4] x6 |[M:1/4] x2 |[M:4/4] x8 | x8 | x8 |[M:3/4] x6 |[M:1/4] x2 | %21
[M:4/4] x8 | z2 A2 A2 [GB]>[Gc] | x8 |[M:3/4] G2 G2 G2 |[M:1/4] x2 |[M:4/4] x8 | x8 | x8 | %29
[M:3/4] x6 |] %30

